X: 26360
T: Merrily Kissed The Quaker
R: slide
M: 12/8
K: Gmajor
|:D|GAB D3 BcA BGE|GAB DEG ABG AGE|
GAB D2 B c2 A BGE|GAB D2 E G3 G2:|
|:A|BGG AGG BGG AGE|GAB DEG ABA AGA|
BGG AGG BGG AGE|GAB D2 E G3 G2:|
|:B/d/|gfg aga bge dBd|gfg gab a3 agf|
gag fgf ege dBA|GAB D2 E G3 G2:|

